assets/static/svgs/currencies/icon-tron.svg

<svg width="1em" height="1em"  viewBox="0 0 24 24" fill="none" xmlns="http://www.w3.org/2000/svg">
<symbol id="item"
width="1em"
height="1em"
viewBox="0 0 24 24"
fill="none"
>
 <path d="M21.7007 14.4192C20.3649 19.7764 14.9384 23.0367 9.58001 21.7008C4.22382 20.3652 0.963159 14.9389 2.29955 9.58206C3.63469 4.22425 9.06121 0.963624 14.418 2.29925C19.7761 3.63487 23.0364 9.06175 21.7007 14.4192Z" fill="#F7931A"/> <path d="M16.4098 10.5754C16.6089 9.24478 15.5957 8.52947 14.2102 8.05228L14.6596 6.24978L13.5623 5.97634L13.1248 7.73134C12.8363 7.65947 12.54 7.59166 12.2456 7.52447L12.6863 5.7579L11.5896 5.48447L11.1399 7.28634C10.9011 7.23196 10.6667 7.17822 10.4392 7.12166L10.4404 7.11603L8.92717 6.73821L8.63526 7.91009C8.63526 7.91009 9.44941 8.09665 9.43222 8.10822C9.87664 8.21915 9.95696 8.51321 9.94352 8.74634L9.43159 10.7998C9.46222 10.8076 9.50191 10.8188 9.54567 10.8363C9.5091 10.8273 9.47004 10.8173 9.42972 10.8076L8.71214 13.6842C8.65776 13.8192 8.51994 14.0217 8.20928 13.9448C8.22022 13.9607 7.41169 13.7457 7.41169 13.7457L6.86694 15.0017L8.29491 15.3576C8.56056 15.4242 8.8209 15.4938 9.07717 15.5595L8.62307 17.3826L9.71912 17.656L10.1689 15.8523C10.4683 15.9335 10.7589 16.0085 11.0433 16.0792L10.5952 17.8745L11.6925 18.1479L12.1466 16.3282C14.0177 16.6823 15.4247 16.5395 16.017 14.8473C16.4942 13.4848 15.9932 12.6988 15.0087 12.1863C15.7257 12.021 16.2658 11.5495 16.4098 10.5754ZM13.9027 14.0907C13.5636 15.4532 11.2693 14.7167 10.5255 14.532L11.128 12.1167C11.8719 12.3023 14.2571 12.6698 13.9027 14.0907ZM14.2421 10.5557C13.9327 11.7951 12.0231 11.1654 11.4037 11.011L11.95 8.82041C12.5694 8.97478 14.5643 9.2629 14.2421 10.5557Z" fill="var(--color--bulma-100)"/> <circle cx="12" cy="12" r="12" fill="#D74545"/> <path d="M18.8232 10.2176C18.182 9.6117 17.2951 8.6864 16.5727 8.03016L16.53 7.99953C16.4589 7.94108 16.3787 7.89524 16.2927 7.86391C14.5509 7.53142 6.44454 5.9805 6.28638 6.00019C6.24207 6.00654 6.19971 6.02298 6.16243 6.04831L6.12182 6.08112C6.07182 6.1331 6.03384 6.19589 6.01069 6.26487L6 6.29331V6.44862V6.47268C6.91258 9.07358 10.5159 17.5938 11.2254 19.5931C11.2682 19.7288 11.3494 19.9869 11.5011 20H11.5353C11.6166 20 11.9628 19.5319 11.9628 19.5319C11.9628 19.5319 18.1521 11.8495 18.7783 11.0314C18.8594 10.9306 18.9309 10.8222 18.992 10.7076C19.0076 10.618 19.0003 10.5257 18.9707 10.4399C18.9411 10.354 18.8903 10.2774 18.8232 10.2176ZM13.7201 10.9058L16.0934 9.08439L17.3445 10.3355L13.7201 10.9058ZM12.2684 10.7076L8.53175 7.53893L14.824 8.75322L12.2684 10.7076ZM12.9105 12.1753L17.0317 11.5314L12.6714 16.6461L12.9105 12.1753ZM8.26426 8.87015L11.4176 11.6289L11.2254 16L8.26426 8.87015Z" fill="var(--color--bulma-100)"/> 
</symbol>
</svg>

<svg width="1em" height="1em"    viewBox="0 0 24 24" fill="none" xmlns="http://www.w3.org/2000/svg">
<symbol id="item"
width="1em"
height="1em"
viewBox="0 0 24 24"
fill="none"
>
<path d="M21.7 14.42c-1.335 5.356-6.762 8.617-12.12 7.28C4.224 20.366.963 14.94 2.3 9.583 3.635 4.224 9.06.964 14.418 2.3c5.358 1.336 8.618 6.763 7.283 12.12Z" fill="#F7931A"/><path d="M16.41 10.575c.199-1.33-.814-2.046-2.2-2.523l.45-1.802-1.098-.274-.437 1.755c-.289-.072-.585-.14-.88-.207l.441-1.766-1.096-.274-.45 1.802a36.683 36.683 0 0 1-.7-.164v-.006l-1.513-.378-.292 1.172s.814.187.797.198c.445.111.525.405.512.638L9.432 10.8c.03.008.07.019.114.036l-.116-.028-.718 2.876c-.054.135-.192.338-.503.26.011.017-.797-.198-.797-.198l-.545 1.256 1.428.356c.266.066.526.136.782.201l-.454 1.824 1.096.273.45-1.804c.3.082.59.157.874.227l-.448 1.796 1.098.273.454-1.82c1.87.354 3.278.212 3.87-1.48.477-1.363-.024-2.15-1.008-2.662.717-.165 1.257-.636 1.4-1.61Zm-2.507 3.516c-.34 1.362-2.634.626-3.378.441l.603-2.415c.744.185 3.13.553 2.775 1.974Zm.34-3.535c-.31 1.24-2.22.61-2.84.455l.547-2.19c.62.154 2.614.442 2.292 1.735Z" fill="var(--color--bulma-100)"/><circle cx="12" cy="12" r="12" fill="#D74545"/><path d="M18.823 10.218c-.641-.606-1.528-1.532-2.25-2.188L16.53 8a.81.81 0 0 0-.237-.136C14.55 7.53 6.445 5.98 6.286 6a.295.295 0 0 0-.124.048l-.04.033a.49.49 0 0 0-.111.184L6 6.293v.18c.913 2.6 4.516 11.12 5.225 13.12.043.136.124.394.276.407h.034c.082 0 .428-.468.428-.468s6.19-7.682 6.815-8.5c.081-.101.153-.21.214-.324a.538.538 0 0 0-.169-.49Zm-5.103.688 2.373-1.822 1.252 1.252-3.625.57Zm-1.452-.198-3.736-3.17 6.292 1.215-2.556 1.955Zm.643 1.467 4.12-.644-4.36 5.115.24-4.47ZM8.264 8.87l3.154 2.759L11.225 16l-2.96-7.13Z" fill="var(--color--bulma-100)"/>
</symbol>
</svg>
